X: 20903
T: CINDERELLA SETT (tune 3)
C:
N: Version 1 for software that doesn't understand voice overlays.
%R: reel
B: Elias Howe "The Musician's Companion" 1843 p.90 #3
S: http://imslp.org/wiki/The_Musician's_Companion_(Howe,_Elias)
Z: 2015 John Chambers <jc:trillian.mit.edu>
M: 2/4
L: 1/16
K: F
% - - - - - - - - - - - - - - - - - - - - - - - - - - - - -
V: 1 name="3"
(cf) |\
a2ag fefd | c6 (ef) | .g2.g2 .c'2.c'2 | a4 f2g[a_e] |\
[bd3]ab[c'c] [d'-B][d'-A][d'-B][d'd] | [ac3]^ga[bB] [c'-A][c'-^G][c'-A][c'c] | g^fga b2ge | g4 f2 H|]
ef |\
g6 ab | c'6 ba | g6 ag | fefa c2ef |\
g6 ab | c'6 ba | g6 ag | g^fag "^D.C."=f2 |]
G2 |\
A4 A2B2 | c4 c2c2 | c2B2B2B2 | B2A2A2G2 |\
A4 A2B2 | c4 c2c2 | c2B2B2B2 | A4 "^D.C."z2 |]
% - - - - - - - - - - Dance description - - - - - - - - - -
%%begintext align
%% First two forward and back,
%% back to back,
%% balance four,
%% all chassa across and back,
%% all balance to partners.
%%endtext
% - - - - - - - - - - - - - - - - - - - - - - - - - - - - -
%%sep 1 1 300

%%sep 1 1 500

